X:9
T:Joe Doucette's Reel
R:reel
C:Brenda Stubbert & Paul Cranford
O:Cape Breton Island
S:http://www.cranfordpub.com
Z:psc, (re-formatted,updated 9/19/04)
N:http://www.cranfordpub.com/stubbert
H:                                                        copyrights Stubbert Music, SOCAN
L:1/8
Q:333
M:C|
K:E
"key E (mixed modes)"a|gbgf e2 BA|\
GBeg fFFa|gbfg ecBG|AcBA GEEa|
gbgf e2 BA|GBeg fFFa|gbfg efce|B=dAF =GEE:|
K:Edor
"E dorian"|:F|GEBE cEBc|dBAd FDAF|\
GEBE cEBc|dBAF GEEF|
GEBE cEBc|dBAd FDAf|gbfg edBA|\
[1BdAF GEE:|[2Bdef gee|]
